; generated by PrusaSlicer 2.8.0+MacOS-arm64 on 2024-09-14 at 07:04:07 UTC


;
;
; 

; external perimeters extrusion width = 0.45mm
; perimeters extrusion width = 0.45mm
; infill extrusion width = 0.45mm
; solid infill extrusion width = 0.45mm
; top infill extrusion width = 0.40mm
; first layer extrusion width = 0.42mm

M73 P0 R229
M73 Q0 S231
M201 X1000 Y1000 Z200 E5000 ; sets maximum accelerations, mm/sec^2
M203 X200 Y200 Z12 E120 ; sets maximum feedrates, mm / sec
M204 S1250 T1250 ; sets acceleration (S) and retract acceleration (R), mm/sec^2
M205 X8.00 Y8.00 Z0.40 E4.50 ; sets the jerk limits, mm/sec
M205 S0 T0 ; sets the minimum extruding and travel feed rate, mm/sec

; printing object JarCase_V5.stl id:0 copy 0
; stop printing object JarCase_V5.stl id:0 copy 0

;TYPE:Custom
M862.3 P "MK3S" ; printer model check
M862.1 P0.4 ; nozzle diameter check
M115 U3.14.0 ; tell printer latest fw version
G90 ; use absolute coordinates
M83 ; extruder relative mode
M104 S215 ; set extruder temp
M140 S60 ; set bed temp
M190 S60 ; wait for bed temp
M109 S215 ; wait for extruder temp
G28 W ; home all without mesh bed level
G80 X39.7573 Y64.2729 W169.854 H98.7342 ; mesh bed levelling

G1 Z0.2 F720
G1 Y-3 F1000 ; go outside print area
G92 E0
G1 X60 E9 F1000 ; intro line
G1 X100 E12.5 F1000 ; intro line

G92 E0
M221 S95

; Don't change E values below. Excessive value can damage the printer.

M907 E538 ; set extruder motor current
G21 ; set units to millimeters
G90 ; use absolute coordinates
M83 ; use relative distances for extrusion

M900 K0.05 ; Filament gcode LA 1.5
M900 K30 ; Filament gcode LA 1.0




M107
;LAYER_CHANGE
;Z:0.2
;HEIGHT:0.2
G1 E-.8 F2100
G1 Z.6 F720
G1 X41.37 Y64.599 F10800
G1 Z.2 F720
G1 E.8 F2100
M204 S800
;TYPE:Skirt/Brim
;WIDTH:0.42
G1 F1200
G1 X42.134 Y64.461 E.02434
G1 X207.234 Y64.461 E5.17659
G1 X208.483 Y64.852 E.04104
G1 X209.285 Y65.885 E.041
G1 X209.423 Y66.65 E.02437
G1 X209.423 Y160.63 E2.94668
G1 X209.032 Y161.878 E.04101
G1 X207.999 Y162.681 E.04102
G1 X207.234 Y162.818 E.02437
G1 X42.134 Y162.818 E5.17659
G1 X40.886 Y162.428 E.041
M73 P0 R228
M73 Q0 S230
G1 X40.084 Y161.395 E.041
G1 X39.946 Y160.63 E.02437
G1 X39.946 Y66.65 E2.94668
G1 X40.337 Y65.402 E.04101
G1 X41.322 Y64.636 E.03912
M204 S1000
;WIPE_START
G1 F8640
G1 X41.37 Y64.599 E-.01399
G1 X42.134 Y64.461 E-.17926
G1 X44.762 Y64.461 E-.60675
;WIPE_END
G1 Z.6 F720
; printing object JarCase_V5.stl id:0 copy 0
G1 X84.811 Y118.266 F10800
G1 Z.2 F720
G1 E.8 F2100
M204 S800
;TYPE:Perimeter
;WIDTH:0.419999
G1 F1200
G1 X85.075 Y118.059 E.01052
G1 X87.058 Y117.415 E.06537
G1 X87.316 Y117.394 E.00812
G1 X87.575 Y117.503 E.00881
G1 X88.099 Y118.183 E.02692
G1 X88.916 Y119.307 E.04357
G1 X89.019 Y119.567 E.00877
G1 X88.984 Y119.848 E.00888
G1 X88.916 Y119.972 E.00443
G1 X87.69 Y121.659 E.06539
G1 X87.496 Y121.828 E.00807
G1 X87.183 Y121.89 E.01
G1 X87.058 Y121.865 E.004
G1 X85.075 Y121.22 E.06538
G1 X84.874 Y121.106 E.00725
G1 X84.747 Y120.942 E.0065
G1 X84.684 Y120.547 E.01254
G1 X84.684 Y118.597 E.06114
G1 X84.767 Y118.305 E.00952
M204 S1000
G1 X84.767 Y118.305 F10800
G1 X85.094 Y118.502
M204 S800
;TYPE:External perimeter
G1 F1200
G1 X85.101 Y118.481 E.00069
G1 X85.191 Y118.418 E.00344
G1 X87.174 Y117.774 E.06537
G1 X87.26 Y117.767 E.00271
G1 X87.385 Y117.842 E.00457
G1 X88.612 Y119.532 E.06548
G1 X88.639 Y119.692 E.00509
G1 X87.385 Y121.438 E.0674
G1 X87.251 Y121.514 E.00483
G1 X87.174 Y121.506 E.00243
G1 X85.191 Y120.862 E.06537
G1 X85.082 Y120.769 E.00449
G1 X85.061 Y118.597 E.0681
G1 X85.074 Y118.558 E.00129
M204 S1000
;WIPE_START
G1 F8640
G1 X85.094 Y118.502 E-.01373
G1 X85.101 Y118.481 E-.00511
G1 X85.191 Y118.418 E-.02537
G1 X87.174 Y117.774 E-.48142
G1 X87.26 Y117.767 E-.01992
G1 X87.385 Y117.842 E-.03366
G1 X87.947 Y118.616 E-.22079
;WIPE_END
G1 Z.6 F720
G1 X84.791 Y128.004 F10800
G1 Z.2 F720
G1 E.8 F2100
M204 S800
;TYPE:Perimeter
G1 F1200
G1 X84.697 Y127.803 E.00696
G1 X84.684 Y127.683 E.00378
G1 X84.684 Y125.597 E.0654
G1 X84.782 Y125.279 E.01043
G1 X85.075 Y125.059 E.01149
G1 X87.058 Y124.415 E.06537
G1 X87.289 Y124.39 E.00729
G1 X87.496 Y124.452 E.00678
G1 X87.69 Y124.621 E.00807
G1 X88.916 Y126.307 E.06536
G1 X89.02 Y126.576 E.00904
G1 X88.983 Y126.852 E.00873
G1 X88.916 Y126.972 E.00431
G1 X87.69 Y128.659 E.06539
G1 X87.473 Y128.839 E.00884
G1 X87.255 Y128.892 E.00703
G1 X87.058 Y128.865 E.00623
G1 X85.075 Y128.22 E.06538
G1 X84.829 Y128.048 E.00941
M204 S1000
G1 X84.829 Y128.048 F10800
G1 X85.113 Y127.792
M204 S800
;TYPE:External perimeter
G1 F1200
G1 X85.078 Y127.761 E.00147
G1 X85.061 Y127.683 E.0025
G1 X85.061 Y125.597 E.0654
G1 X85.094 Y125.491 E.00348
G1 X85.191 Y125.418 E.00381
G1 X87.174 Y124.774 E.06537
G1 X87.32 Y124.786 E.00459
G1 X87.385 Y124.842 E.00269
G1 X88.611 Y126.529 E.06539
G1 X88.64 Y126.688 E.00507
G1 X88.611 Y126.751 E.00217
G1 X87.385 Y128.438 E.06539
G1 X87.26 Y128.513 E.00457
G1 X87.174 Y128.506 E.00271
G1 X85.191 Y127.862 E.06537
G1 X85.158 Y127.832 E.0014
M204 S1000
;WIPE_START
G1 F8640
G1 X85.113 Y127.792 E-.0139
G1 X85.078 Y127.761 E-.0108
G1 X85.061 Y127.683 E-.01843
G1 X85.061 Y125.597 E-.48166
G1 X85.094 Y125.491 E-.02563
G1 X85.191 Y125.418 E-.02803
G1 X86.104 Y125.121 E-.22155
;WIPE_END
G1 Z.6 F720
G1 X78.799 Y127.01 F10800
G1 Z.2 F720
G1 E.8 F2100
M204 S800
;TYPE:Perimeter
G1 F1200
G1 X78.741 Y126.931 E.00307
G1 X78.684 Y126.683 E.00798
G1 X78.684 Y124.597 E.0654
G1 X78.77 Y124.298 E.00976
G1 X79.075 Y124.059 E.01215
G1 X81.058 Y123.415 E.06537
G1 X81.289 Y123.39 E.00729
G1 X81.496 Y123.452 E.00678
G1 X81.69 Y123.621 E.00807
G1 X82.916 Y125.307 E.06536
G1 X83.023 Y125.623 E.01046
G1 X83.015 Y125.738 E.00361
G1 X82.916 Y125.972 E.00797
G1 X81.69 Y127.659 E.06539
G1 X81.46 Y127.845 E.00927
G1 X81.058 Y127.865 E.01262
G1 X79.075 Y127.22 E.06538
G1 X78.856 Y127.089 E.008
G1 X78.834 Y127.059 E.00117
M204 S1000
G1 X78.834 Y127.059 F10800
G1 X79.115 Y126.795
M204 S800
;TYPE:External perimeter
G1 F1200
G1 X79.08 Y126.765 E.00145
G1 X79.061 Y124.597 E.06798
G1 X79.101 Y124.481 E.00385
G1 X79.191 Y124.418 E.00344
G1 X81.174 Y123.774 E.06537
G1 X81.32 Y123.786 E.00459
G1 X82.611 Y125.529 E.06801
G1 X82.644 Y125.673 E.00463
G1 X82.611 Y125.751 E.00266
G1 X81.385 Y127.438 E.06539
G1 X81.291 Y127.506 E.00364
G1 X81.174 Y127.506 E.00367
G1 X79.191 Y126.862 E.06537
G1 X79.16 Y126.835 E.00129
M204 S1000
;WIPE_START
G1 F8640
G1 X79.115 Y126.795 E-.0139
G1 X79.08 Y126.765 E-.01064
G1 X79.061 Y124.597 E-.50062
G1 X79.101 Y124.481 E-.02833
G1 X79.191 Y124.418 E-.02537
G1 X80.102 Y124.122 E-.22114
;WIPE_END
G1 Z.6 F720
G1 X79.804 Y130.261 F10800
G1 Z.2 F720
G1 E.8 F2100
M204 S800
;TYPE:Perimeter
G1 F1200
G1 X80.012 Y130.084 E.00856
G1 X80.075 Y130.059 E.00213
G1 X82.058 Y129.415 E.06537
G1 X82.353 Y129.4 E.00926
G1 X82.6 Y129.523 E.00865
G1 X83.916 Y131.307 E.06951
G1 X84.014 Y131.536 E.00781
G1 X84.002 Y131.795 E.00813
G1 X83.916 Y131.972 E.00617
G1 X82.69 Y133.659 E.06539
G1 X82.491 Y133.83 E.00823
G1 X82.217 Y133.892 E.00881
G1 X81.635 Y133.728 E.01896
G1 X80.075 Y133.22 E.05144
G1 X79.917 Y133.141 E.00554
G1 X79.719 Y132.88 E.01027
G1 X79.684 Y132.408 E.01484
G1 X79.684 Y131.821 E.0184
G1 X79.684 Y130.597 E.03838
G1 X79.772 Y130.308 E.00947
M204 S1000
G1 X79.772 Y130.308 F10800
G1 X80.106 Y130.502
M204 S800
;TYPE:External perimeter
G1 F1200
G1 X80.13 Y130.451 E.00177
G1 X82.174 Y129.774 E.06751
G1 X82.322 Y129.787 E.00466
G1 X83.611 Y131.529 E.06795
G1 X83.639 Y131.692 E.00519
G1 X82.385 Y133.438 E.0674
G1 X82.245 Y133.515 E.00501
G1 X80.191 Y132.862 E.06758
G1 X80.071 Y132.744 E.00528
G1 X80.061 Y131.821 E.02894
G1 X80.061 Y130.597 E.03838
G1 X80.081 Y130.556 E.00143
M204 S1000
;WIPE_START
G1 F8640
G1 X80.106 Y130.502 E-.01374
G1 X80.13 Y130.451 E-.01301
G1 X82.174 Y129.774 E-.49718
G1 X82.322 Y129.787 E-.03431
G1 X82.945 Y130.629 E-.24176
;WIPE_END
G1 Z.6 F720
G1 X75.481 Y131.385 F10800
G1 Z.2 F720
G1 E.8 F2100
M204 S800
;TYPE:Perimeter
;WIDTH:0.593629
G1 F1200
G1 X75.498 Y131.405 E.0012
;WIDTH:0.550222
G1 X75.562 Y131.477 E.00406
;WIDTH:0.506814
G1 X75.626 Y131.549 E.00372
;WIDTH:0.463407
G1 X75.69 Y131.621 E.00337
;WIDTH:0.419999
G1 X76.916 Y133.307 E.06536
G1 X77.018 Y133.562 E.00861
G1 X76.968 Y133.885 E.01025
G1 X75.69 Y135.659 E.06855
G1 X75.469 Y135.841 E.00898
G1 X75.196 Y135.891 E.0087
G1 X75.058 Y135.865 E.0044
G1 X73.075 Y135.22 E.06538
G1 X72.835 Y135.067 E.00892
G1 X72.708 Y134.847 E.00796
G1 X72.684 Y134.632 E.00678
G1 X72.684 Y132.597 E.06381
G1 X72.7 Y132.461 E.00429
G1 X72.811 Y132.24 E.00775
G1 X73.075 Y132.059 E.01004
G1 X75.058 Y131.415 E.06537
;WIDTH:0.465165
G1 X75.124 Y131.387 E.00252
;WIDTH:0.51033
G1 X75.191 Y131.359 E.00282
;WIDTH:0.555495
G1 X75.258 Y131.331 E.00309
;WIDTH:0.60066
G1 X75.324 Y131.304 E.00331
G1 X75.434 Y131.333 E.00528
;WIDTH:0.593629
G1 X75.441 Y131.34 E.00045
M204 S1000
G1 X75.441 Y131.34 F10800
G1 X75.275 Y131.774
M204 S800
;TYPE:External perimeter
;WIDTH:0.419999
G1 F1200
G1 X75.291 Y131.774 E.0005
G1 X75.385 Y131.842 E.00364
G1 X76.611 Y133.529 E.06539
G1 X76.643 Y133.676 E.00472
G1 X76.35 Y134.11 E.01642
G1 X75.385 Y135.438 E.05147
G1 X75.244 Y135.515 E.00504
G1 X75.174 Y135.506 E.00221
G1 X73.191 Y134.862 E.06537
G1 X73.084 Y134.773 E.00436
G1 X73.061 Y134.632 E.00448
G1 X73.061 Y132.597 E.06381
G1 X73.103 Y132.478 E.00396
G1 X73.191 Y132.418 E.00334
G1 X75.174 Y131.774 E.06537
G1 X75.215 Y131.774 E.00129
M204 S1000
;WIPE_START
G1 F8640
G1 X75.275 Y131.774 E-.01385
G1 X75.291 Y131.774 E-.00369
G1 X75.385 Y131.842 E-.02679
G1 X76.611 Y133.529 E-.48153
G1 X76.643 Y133.676 E-.03474
G1 X76.35 Y134.11 E-.12091
G1 X76.048 Y134.525 E-.11849
;WIPE_END
G1 Z.6 F720
G1 X73.818 Y130.003 F10800
G1 Z.2 F720
G1 E.8 F2100
M204 S800
;TYPE:Perimeter
G1 F1200
G1 X73.747 Y129.942 E.00293
G1 X73.684 Y129.683 E.00836
G1 X73.684 Y127.597 E.0654
G1 X73.733 Y127.367 E.00737
G1 X73.912 Y127.143 E.00899
G1 X74.075 Y127.059 E.00575
G1 X76.058 Y126.415 E.06537
G1 X76.282 Y126.39 E.00707
G1 X76.538 Y126.477 E.00848
G1 X76.69 Y126.621 E.00656
G1 X77.916 Y128.307 E.06536
G1 X77.978 Y128.418 E.00399
G1 X78.022 Y128.689 E.00861
G1 X77.916 Y128.972 E.00948
G1 X76.69 Y130.659 E.06539
G1 X76.479 Y130.836 E.00864
G1 X76.142 Y130.885 E.01068
;WIDTH:0.463407
G1 X76.008 Y130.866 E.00473
;WIDTH:0.506814
G1 X75.873 Y130.847 E.00526
;WIDTH:0.550222
G1 X75.739 Y130.828 E.00571
;WIDTH:0.593629
G1 X75.604 Y130.809 E.00624
;WIDTH:0.60066
G1 X75.45 Y130.762 E.00747
G1 X75.352 Y130.707 E.00521
;WIDTH:0.555495
G1 X75.254 Y130.651 E.00481
;WIDTH:0.51033
G1 X75.156 Y130.595 E.00439
;WIDTH:0.465165
G1 X75.058 Y130.54 E.00395
;WIDTH:0.419999
G1 X74.075 Y130.22 E.03241
G1 X73.864 Y130.042 E.00866
M204 S1000
G1 X73.864 Y130.042 F10800
G1 X74.115 Y129.787
M204 S800
;TYPE:External perimeter
G1 F1200
G1 X74.071 Y129.743 E.00195
G1 X74.061 Y129.683 E.00191
G1 X74.061 Y127.597 E.0654
G1 X74.077 Y127.521 E.00244
G1 X74.191 Y127.418 E.00482
G1 X76.174 Y126.774 E.06537
G1 X76.334 Y126.794 E.00506
G1 X77.611 Y128.529 E.06755
G1 X77.636 Y128.702 E.00548
G1 X76.385 Y130.438 E.06709
G1 X76.315 Y130.497 E.00287
G1 X76.174 Y130.506 E.00443
G1 X74.191 Y129.862 E.06537
G1 X74.158 Y129.829 E.00146
M204 S1000
;WIPE_START
G1 F8640
G1 X74.115 Y129.787 E-.01388
G1 X74.071 Y129.743 E-.01437
G1 X74.061 Y129.683 E-.01405
G1 X74.061 Y127.597 E-.48166
G1 X74.077 Y127.521 E-.01793
G1 X74.191 Y127.418 E-.03548
G1 X75.108 Y127.12 E-.22263
;WIPE_END
G1 Z.6 F720
G1 X73.727 Y121.999 F10800
G1 Z.2 F720
G1 E.8 F2100
M204 S800
;TYPE:Perimeter
;WIDTH:0.561191
G1 F1200
G1 X73.718 Y121.932 E.00291
;WIDTH:0.514127
G1 X73.701 Y121.807 E.00494
;WIDTH:0.467063
G1 X73.684 Y121.683 E.00441
;WIDTH:0.419999
G1 X73.684 Y119.597 E.0654
G1 X73.755 Y119.323 E.00887
G1 X73.871 Y119.177 E.00585
G1 X74.075 Y119.059 E.00739
G1 X76.058 Y118.415 E.06537
G1 X76.302 Y118.392 E.00768
G1 X76.576 Y118.504 E.00928
G1 X77.057 Y119.126 E.02465
G1 X77.916 Y120.307 E.04579
;WIDTH:0.467328
G1 X77.975 Y120.428 E.00475
;WIDTH:0.514657
G1 X78.035 Y120.549 E.0053
;WIDTH:0.561985
G1 X78.094 Y120.67 E.00581
G1 X78.053 Y120.762 E.00435
;WIDTH:0.519709
G1 X78.013 Y120.853 E.00394
;WIDTH:0.477433
G1 X77.68 Y121.304 E.02025
;WIDTH:0.448716
G1 X77.348 Y121.754 E.01887
;WIDTH:0.419999
G1 X76.69 Y122.659 E.03508
G1 X76.539 Y122.802 E.00652
G1 X76.282 Y122.89 E.00852
G1 X76.058 Y122.865 E.00707
G1 X74.585 Y122.386 E.04857
G1 X74.075 Y122.22 E.01682
;WIDTH:0.469325
G1 X73.985 Y122.194 E.00332
;WIDTH:0.51865
G1 X73.895 Y122.168 E.00371
;WIDTH:0.567975
G1 X73.805 Y122.142 E.00409
G1 X73.736 Y122.058 E.00475
M204 S1000
G1 X73.736 Y122.058 F10800
G1 X74.092 Y121.778
M204 S800
;TYPE:External perimeter
;WIDTH:0.419999
G1 F1200
G1 X74.061 Y121.683 E.00313
G1 X74.061 Y119.597 E.0654
G1 X74.123 Y119.457 E.0048
G1 X76.174 Y118.774 E.06778
G1 X76.347 Y118.803 E.0055
G1 X77.611 Y120.529 E.06708
G1 X77.634 Y120.708 E.00566
G1 X76.385 Y122.438 E.0669
G1 X76.249 Y122.515 E.0049
G1 X74.701 Y122.028 E.05088
G1 X74.191 Y121.862 E.01682
G1 X74.132 Y121.819 E.00229
M204 S1000
;WIPE_START
G1 F8640
G1 X74.092 Y121.778 E-.01323
G1 X74.061 Y121.683 E-.02307
G1 X74.061 Y119.597 E-.48166
G1 X74.123 Y119.457 E-.03535
G1 X75.137 Y119.119 E-.24669
;WIPE_END
G1 Z.6 F720
G1 X74.015 Y123.65 F10800
G1 Z.2 F720
G1 E.8 F2100
M204 S800
;TYPE:Perimeter
G1 F1200
G1 X73.957 Y123.906 E.00823
G1 X72.69 Y125.659 E.06782
G1 X72.557 Y125.79 E.00585
G1 X72.265 Y125.892 E.0097
G1 X72.058 Y125.865 E.00655
G1 X70.075 Y125.22 E.06538
G1 X69.89 Y125.119 E.00661
G1 X69.719 Y124.878 E.00927
G1 X69.684 Y124.683 E.00621
G1 X69.684 Y122.597 E.0654
G1 X69.697 Y122.475 E.00385
G1 X69.846 Y122.201 E.00978
G1 X70.075 Y122.059 E.00845
G1 X72.058 Y121.415 E.06537
G1 X72.393 Y121.411 E.0105
G1 X72.69 Y121.621 E.0114
G1 X72.916 Y121.932 E.01205
;WIDTH:0.467063
G1 X73.049 Y122.075 E.00689
;WIDTH:0.514127
G1 X73.182 Y122.218 E.00765
;WIDTH:0.561191
G1 X73.315 Y122.361 E.00842
G1 X73.41 Y122.532 E.00843
;WIDTH:0.514127
G1 X73.505 Y122.703 E.00766
;WIDTH:0.467063
G1 X73.6 Y122.873 E.00687
;WIDTH:0.419999
G1 X73.916 Y123.307 E.01683
G1 X74.015 Y123.592 E.00946
M204 S1000
G1 X74.015 Y123.592 F10800
G1 X73.624 Y123.636
M204 S800
;TYPE:External perimeter
G1 F1200
G1 X73.634 Y123.709 E.00231
G1 X72.385 Y125.438 E.06688
G1 X72.243 Y125.515 E.00506
G1 X71.261 Y125.21 E.03224
G1 X70.191 Y124.862 E.03528
G1 X70.072 Y124.748 E.00517
G1 X70.065 Y122.557 E.0687
G1 X70.165 Y122.429 E.00509
G1 X72.174 Y121.774 E.06625
G1 X72.286 Y121.772 E.00351
G1 X72.385 Y121.842 E.0038
G1 X73.611 Y123.529 E.06539
G1 X73.617 Y123.577 E.00152
M204 S1000
;WIPE_START
G1 F8640
G1 X73.624 Y123.636 E-.01372
G1 X73.634 Y123.709 E-.01701
G1 X72.385 Y125.438 E-.4925
G1 X72.243 Y125.515 E-.0373
G1 X71.261 Y125.21 E-.23743
G1 X71.253 Y125.207 E-.00204
;WIPE_END
G1 Z.6 F720
G1 X70.002 Y117.641 F10800
G1 Z.2 F720
G1 E.8 F2100
M204 S800
;TYPE:Perimeter
G1 F1200
G1 X69.998 Y117.807 E.00521
G1 X69.736 Y118.22 E.01534
G1 X68.69 Y119.659 E.05578
G1 X68.486 Y119.832 E.00839
G1 X68.162 Y119.888 E.01031
G1 X68.058 Y119.865 E.00334
G1 X66.075 Y119.22 E.06538
G1 X65.837 Y119.069 E.00884
G1 X65.703 Y118.828 E.00865
G1 X65.684 Y118.683 E.00459
G1 X65.684 Y116.597 E.0654
G1 X65.757 Y116.319 E.00901
G1 X65.95 Y116.117 E.00876
G1 X68.058 Y115.415 E.06966
G1 X68.314 Y115.393 E.00806
G1 X68.509 Y115.459 E.00645
G1 X68.69 Y115.621 E.00762
G1 X69.916 Y117.307 E.06536
G1 X70.005 Y117.495 E.00652
G1 X70.003 Y117.581 E.0027
M204 S1000
G1 X70.003 Y117.581 F10800
G1 X69.628 Y117.634
M204 S800
;TYPE:External perimeter
G1 F1200
G1 X69.638 Y117.696 E.00197
G1 X69.431 Y117.998 E.01148
G1 X68.385 Y119.438 E.0558
G1 X68.29 Y119.506 E.00366
G1 X68.174 Y119.506 E.00364
G1 X66.191 Y118.862 E.06537
G1 X66.073 Y118.749 E.00512
G1 X66.061 Y118.683 E.0021
G1 X66.061 Y116.597 E.0654
G1 X66.127 Y116.454 E.00494
G1 X68.177 Y115.773 E.06773
G1 X68.325 Y115.788 E.00466
G1 X68.385 Y115.842 E.00253
G1 X69.611 Y117.529 E.06539
G1 X69.618 Y117.575 E.00146
M204 S1000
;WIPE_START
G1 F8640
G1 X69.628 Y117.634 E-.01382
G1 X69.638 Y117.696 E-.0145
G1 X69.431 Y117.998 E-.08454
G1 X68.385 Y119.438 E-.41096
G1 X68.29 Y119.506 E-.02698
