; generated by PrusaSlicer 2.8.0+MacOS-arm64 on 2024-09-18 at 03:17:21 UTC


;
;
; 

; external perimeters extrusion width = 0.45mm
; perimeters extrusion width = 0.45mm
; infill extrusion width = 0.45mm
; solid infill extrusion width = 0.45mm
; top infill extrusion width = 0.40mm
; first layer extrusion width = 0.42mm

M73 P0 R73
M73 Q0 S75
M201 X1000 Y1000 Z200 E5000 ; sets maximum accelerations, mm/sec^2
M203 X200 Y200 Z12 E120 ; sets maximum feedrates, mm / sec
M204 S1250 T1250 ; sets acceleration (S) and retract acceleration (R), mm/sec^2
M205 X8.00 Y8.00 Z0.40 E4.50 ; sets the jerk limits, mm/sec
M205 S0 T0 ; sets the minimum extruding and travel feed rate, mm/sec

; printing object PeripheralLidV6.stl id:0 copy 0
; stop printing object PeripheralLidV6.stl id:0 copy 0

;TYPE:Custom
M862.3 P "MK3S" ; printer model check
M862.1 P0.4 ; nozzle diameter check
M115 U3.14.0 ; tell printer latest fw version
G90 ; use absolute coordinates
M83 ; extruder relative mode
M104 S215 ; set extruder temp
M140 S60 ; set bed temp
M190 S60 ; wait for bed temp
M109 S215 ; wait for extruder temp
G28 W ; home all without mesh bed level
G80 X20.6494 Y49.8526 W138.623 H80.2947 ; mesh bed levelling

G1 Z0.2 F720
G1 Y-3 F1000 ; go outside print area
G92 E0
G1 X60 E9 F1000 ; intro line
G1 X100 E12.5 F1000 ; intro line

G92 E0
M221 S95

; Don't change E values below. Excessive value can damage the printer.

M907 E538 ; set extruder motor current
G21 ; set units to millimeters
G90 ; use absolute coordinates
M83 ; use relative distances for extrusion

M900 K0.05 ; Filament gcode LA 1.5
M900 K30 ; Filament gcode LA 1.0




M107
;LAYER_CHANGE
;Z:0.2
;HEIGHT:0.2
G1 E-.8 F2100
G1 Z.6 F720
G1 X22.35 Y50.507 F10800
G1 Z.2 F720
G1 E.8 F2100
M204 S800
;TYPE:Skirt/Brim
;WIDTH:0.42
G1 F1200
G1 X23.456 Y50.148 E.03646
G1 X24.132 Y50.041 E.02146
G1 X156.212 Y50.041 E4.14128
G1 X157.46 Y50.432 E.04101
G1 X157.982 Y50.943 E.0229
G1 X158.666 Y51.884 E.03648
G1 X159.084 Y53.17 E.0424
G1 X159.084 Y126.83 E2.30956
G1 X158.666 Y128.116 E.0424
M73 P0 R72
G1 X157.982 Y129.057 E.03648
G1 X156.932 Y129.837 E.04101
G1 X156.212 Y129.959 E.0229
G1 X24.132 Y129.959 E4.14128
G1 X23.456 Y129.852 E.02146
G1 X22.35 Y129.493 E.03646
G1 X21.284 Y128.735 E.04101
G1 X20.838 Y127.411 E.04381
G1 X20.838 Y52.589 E2.34599
G1 X21.229 Y51.341 E.04101
G1 X22.302 Y50.543 E.04193
M204 S1000
;WIPE_START
G1 F8640
G1 X22.35 Y50.507 E-.01385
G1 X23.456 Y50.148 E-.2685
G1 X24.132 Y50.041 E-.15803
G1 X25.689 Y50.041 E-.35962
;WIPE_END
G1 Z.6 F720
; printing object PeripheralLidV6.stl id:0 copy 0
G1 X24 Y53.296 F10800
G1 Z.2 F720
G1 E.8 F2100
M204 S800
;TYPE:Perimeter
;WIDTH:0.419999
G1 F1200
G1 X24.185 Y53.236 E.0061
G1 X155.739 Y53.236 E4.12478
G1 X155.877 Y53.426 E.00736
G1 X155.877 Y53.517 E.00285
G1 X155.877 Y126.574 E2.29065
G1 X155.739 Y126.764 E.00736
G1 X24.22 Y126.764 E4.12368
G1 X24 Y126.704 E.00715
M73 P1 R72
M73 Q1 S75
G1 X24 Y53.356 E2.29977
M204 S1000
G1 X24 Y53.356 F10800
G1 X23.623 Y53.022
M204 S800
;TYPE:External perimeter
G1 F1200
G1 X24.125 Y52.859 E.01655
G1 X155.932 Y52.859 E4.13271
G1 X156.254 Y53.303 E.0172
G1 X156.254 Y53.517 E.00671
G1 X156.254 Y126.697 E2.2945
G1 X155.932 Y127.141 E.0172
M73 Q1 S74
G1 X24.125 Y127.141 E4.13271
G1 X23.623 Y126.978 E.01655
G1 X23.623 Y53.082 E2.31695
M204 S1000
;WIPE_START
G1 F8640
G1 X23.623 Y53.022 E-.01385
G1 X24.125 Y52.859 E-.12187
G1 X27.002 Y52.859 E-.66428
;WIPE_END
G1 Z.6 F720
G1 X155.707 Y54.168 F10800
G1 Z.2 F720
G1 E.8 F2100
M204 S800
;TYPE:Solid infill
;WIDTH:0.420028
G1 F1200
G1 X155.115 Y53.576 E.02625
G1 X154.581 Y53.576 E.01674
G1 X155.538 Y54.532 E.04242
G1 X155.538 Y55.065 E.01671
G1 X154.048 Y53.576 E.06605
G1 X153.515 Y53.576 E.01671
G1 X155.538 Y55.599 E.08971
G1 X155.538 Y56.132 E.01671
G1 X152.981 Y53.576 E.11337
G1 X152.448 Y53.576 E.01671
G1 X155.538 Y56.665 E.137
G1 X155.538 Y57.199 E.01674
G1 X151.915 Y53.576 E.16066
G1 X151.381 Y53.576 E.01674
G1 X155.538 Y57.732 E.18432
G1 X155.538 Y58.265 E.01671
G1 X150.848 Y53.576 E.20796
G1 X150.315 Y53.576 E.01671
G1 X155.538 Y58.799 E.23161
G1 X155.538 Y59.332 E.01671
G1 X149.782 Y53.576 E.25525
G1 X149.248 Y53.576 E.01674
G1 X155.538 Y59.865 E.27891
G1 X155.538 Y60.398 E.01671
G1 X148.715 Y53.576 E.30254
G1 X148.182 Y53.576 E.01671
G1 X155.538 Y60.932 E.3262
G1 X155.538 Y61.465 E.01671
G1 X147.648 Y53.576 E.34986
G1 X147.115 Y53.576 E.01671
G1 X155.538 Y61.998 E.3735
G1 X155.538 Y62.532 E.01674
M73 P1 R71
G1 X146.582 Y53.576 E.39715
G1 X146.048 Y53.576 E.01674
G1 X155.538 Y63.065 E.42081
G1 X155.538 Y63.598 E.01671
G1 X145.515 Y53.576 E.44445
G1 X144.982 Y53.576 E.01671
G1 X155.538 Y64.132 E.46811
G1 X155.538 Y64.665 E.01671
G1 X144.448 Y53.576 E.49176
G1 X143.915 Y53.576 E.01671
G1 X155.538 Y65.198 E.5154
G1 X155.538 Y65.732 E.01674
G1 X143.382 Y53.576 E.53906
G1 X142.848 Y53.576 E.01674
G1 X155.538 Y66.265 E.56272
G1 X155.538 Y66.798 E.01671
G1 X142.315 Y53.576 E.58635
G1 X141.782 Y53.576 E.01671
G1 X155.538 Y67.332 E.61001
G1 X155.538 Y67.865 E.01671
G1 X141.249 Y53.576 E.63365
G1 X140.715 Y53.576 E.01674
G1 X155.538 Y68.398 E.6573
G1 X155.538 Y68.931 E.01671
G1 X140.182 Y53.576 E.68094
G1 X139.649 Y53.576 E.01671
M73 P2 R71
G1 X155.538 Y69.465 E.7046
G1 X155.538 Y69.998 E.01671
G1 X139.115 Y53.576 E.72826
G1 X138.582 Y53.576 E.01671
M73 Q2 S74
G1 X155.538 Y70.531 E.75189
G1 X155.538 Y71.065 E.01674
G1 X138.049 Y53.576 E.77555
G1 X137.515 Y53.576 E.01674
G1 X155.538 Y71.598 E.79921
G1 X155.538 Y72.131 E.01671
G1 X136.982 Y53.576 E.82284
G1 X136.449 Y53.576 E.01671
G1 X155.538 Y72.665 E.8465
G1 X155.538 Y73.198 E.01671
G1 X135.915 Y53.576 E.87016
G1 X135.382 Y53.576 E.01671
G1 X155.538 Y73.731 E.8938
G1 X155.538 Y74.265 E.01674
G1 X134.849 Y53.576 E.91745
G1 X134.315 Y53.576 E.01674
G1 X155.538 Y74.798 E.94111
G1 X155.538 Y75.331 E.01671
G1 X133.782 Y53.576 E.96475
G1 X133.249 Y53.576 E.01671
G1 X155.538 Y75.865 E.98841
G1 X155.538 Y76.398 E.01671
G1 X132.716 Y53.576 E1.01204
G1 X132.182 Y53.576 E.01674
G1 X155.538 Y76.931 E1.0357
G1 X155.538 Y77.464 E.01671
G1 X131.649 Y53.576 E1.05934
G1 X131.116 Y53.576 E.01671
G1 X155.538 Y77.998 E1.08299
G1 X155.538 Y78.531 E.01671
G1 X130.582 Y53.576 E1.10665
G1 X130.049 Y53.576 E.01671
G1 X155.538 Y79.064 E1.13029
G1 X155.538 Y79.598 E.01674
G1 X129.516 Y53.576 E1.15395
G1 X128.982 Y53.576 E.01674
M73 Q2 S73
G1 X155.538 Y80.131 E1.1776
G1 X155.538 Y80.664 E.01671
G1 X128.449 Y53.576 E1.20124
G1 X127.916 Y53.576 E.01671
G1 X155.538 Y81.198 E1.2249
G1 X155.538 Y81.731 E.01671
G1 X127.382 Y53.576 E1.24856
G1 X126.849 Y53.576 E.01671
G1 X155.538 Y82.264 E1.27219
G1 X155.538 Y82.798 E.01674
G1 X126.316 Y53.576 E1.29585
G1 X125.783 Y53.576 E.01671
G1 X155.538 Y83.331 E1.31949
G1 X155.538 Y83.864 E.01671
M73 P3 R71
G1 X125.249 Y53.576 E1.34314
G1 X124.716 Y53.576 E.01671
G1 X155.538 Y84.398 E1.3668
G1 X155.538 Y84.931 E.01671
M73 P3 R70
M73 Q3 S73
G1 X124.183 Y53.576 E1.39044
G1 X123.649 Y53.576 E.01674
G1 X155.538 Y85.464 E1.4141
G1 X155.538 Y85.997 E.01671
G1 X123.116 Y53.576 E1.43773
G1 X122.583 Y53.576 E.01671
G1 X155.538 Y86.531 E1.46139
G1 X155.538 Y87.064 E.01671
G1 X122.049 Y53.576 E1.48505
G1 X121.516 Y53.576 E.01671
G1 X155.538 Y87.597 E1.50868
G1 X155.538 Y88.131 E.01674
G1 X120.983 Y53.576 E1.53234
G1 X120.449 Y53.576 E.01674
G1 X155.538 Y88.664 E1.556
G1 X155.538 Y89.197 E.01671
G1 X119.916 Y53.576 E1.57964
G1 X119.383 Y53.576 E.01671
G1 X155.538 Y89.731 E1.60329
G1 X155.538 Y90.264 E.01671
G1 X118.849 Y53.576 E1.62695
G1 X118.316 Y53.576 E.01671
G1 X155.538 Y90.797 E1.65059
G1 X155.538 Y91.331 E.01674
G1 X117.783 Y53.576 E1.67425
G1 X117.25 Y53.576 E.01671
G1 X155.538 Y91.864 E1.69788
G1 X155.538 Y92.397 E.01671
G1 X116.716 Y53.576 E1.72154
G1 X116.183 Y53.576 E.01671
G1 X155.538 Y92.93 E1.74518
G1 X155.538 Y93.464 E.01674
M73 P4 R70
G1 X115.65 Y53.576 E1.76883
G1 X115.117 Y53.576 E.01671
M73 Q3 S72
G1 X155.538 Y93.997 E1.79247
G1 X155.538 Y94.53 E.01671
M73 Q4 S72
G1 X114.583 Y53.576 E1.81613
G1 X114.05 Y53.576 E.01671
G1 X155.538 Y95.064 E1.83979
G1 X155.538 Y95.597 E.01671
G1 X113.517 Y53.576 E1.86342
G1 X112.984 Y53.576 E.01671
G1 X155.538 Y96.13 E1.88706
G1 X155.538 Y96.664 E.01674
G1 X112.45 Y53.576 E1.91074
G1 X111.917 Y53.576 E.01671
M73 P4 R69
G1 X155.538 Y97.197 E1.93437
G1 X155.538 Y97.73 E.01671
G1 X111.384 Y53.576 E1.95801
G1 X110.851 Y53.577 E.01671
G1 X155.538 Y98.264 E1.98165
G1 X155.538 Y98.797 E.01671
G1 X110.317 Y53.577 E2.0053
G1 X109.784 Y53.577 E.01671
G1 X155.538 Y99.33 E2.02894
G1 X155.538 Y99.864 E.01674
G1 X109.251 Y53.577 E2.0526
G1 X108.717 Y53.577 E.01674
G1 X155.538 Y100.397 E2.07626
G1 X155.538 Y100.93 E.01671
M73 P5 R69
G1 X108.184 Y53.577 E2.09989
G1 X107.651 Y53.577 E.01671
G1 X155.538 Y101.463 E2.12353
G1 X155.538 Y101.997 E.01674
M73 Q5 S72
G1 X107.118 Y53.577 E2.14719
G1 X106.584 Y53.577 E.01674
G1 X155.538 Y102.53 E2.17084
G1 X155.538 Y103.063 E.01671
G1 X106.051 Y53.577 E2.19448
G1 X105.518 Y53.577 E.01671
M73 Q5 S71
G1 X155.538 Y103.597 E2.21814
G1 X155.538 Y104.13 E.01671
G1 X104.985 Y53.577 E2.24177
G1 X104.451 Y53.577 E.01674
G1 X155.538 Y104.663 E2.26543
G1 X155.538 Y105.197 E.01674
G1 X103.918 Y53.577 E2.28909
G1 X103.385 Y53.577 E.01671
G1 X155.538 Y105.73 E2.31273
G1 X155.538 Y106.263 E.01671
M73 P5 R68
G1 X102.852 Y53.577 E2.33636
G1 X102.318 Y53.577 E.01674
G1 X155.538 Y106.797 E2.36004
G1 X155.538 Y107.33 E.01671
M73 P6 R68
G1 X101.785 Y53.577 E2.38368
G1 X101.252 Y53.577 E.01671
G1 X155.538 Y107.863 E2.40731
G1 X155.538 Y108.397 E.01674
M73 Q6 S71
G1 X100.719 Y53.577 E2.43097
G1 X100.185 Y53.577 E.01674
G1 X155.538 Y108.93 E2.45463
G1 X155.538 Y109.463 E.01671
G1 X99.652 Y53.578 E2.47824
G1 X99.119 Y53.578 E.01671
G1 X155.538 Y109.996 E2.50188
G1 X155.538 Y110.53 E.01674
G1 X98.585 Y53.578 E2.52556
G1 X98.052 Y53.578 E.01671
G1 X155.538 Y111.063 E2.5492
G1 X155.538 Y111.596 E.01671
G1 X97.519 Y53.578 E2.57283
G1 X96.986 Y53.578 E.01671
M73 Q6 S70
G1 X155.538 Y112.13 E2.59649
G1 X155.538 Y112.663 E.01671
G1 X96.452 Y53.578 E2.62015
G1 X95.919 Y53.578 E.01671
M73 P7 R68
G1 X155.538 Y113.196 E2.64378
G1 X155.538 Y113.73 E.01674
G1 X95.386 Y53.578 E2.66744
G1 X94.853 Y53.578 E.01671
M73 P7 R67
G1 X155.538 Y114.263 E2.69108
G1 X155.538 Y114.796 E.01671
M73 Q7 S70
G1 X94.319 Y53.578 E2.71474
G1 X93.786 Y53.578 E.01671
G1 X155.538 Y115.33 E2.73839
G1 X155.538 Y115.863 E.01671
G1 X93.253 Y53.578 E2.76203
G1 X92.72 Y53.578 E.01671
G1 X155.538 Y116.396 E2.78566
G1 X155.538 Y116.929 E.01671
G1 X92.186 Y53.578 E2.80932
G1 X91.653 Y53.578 E.01671
G1 X155.538 Y117.463 E2.83298
G1 X155.538 Y117.996 E.01671
G1 X91.12 Y53.578 E2.85662
G1 X90.587 Y53.578 E.01671
M73 P8 R67
G1 X155.538 Y118.529 E2.88025
G1 X155.538 Y119.063 E.01674
G1 X90.053 Y53.578 E2.90393
G1 X89.52 Y53.578 E.01671
M73 Q7 S69
G1 X155.538 Y119.596 E2.92757
G1 X155.538 Y120.129 E.01671
M73 Q8 S69
G1 X88.987 Y53.578 E2.9512
G1 X88.453 Y53.579 E.01674
G1 X155.538 Y120.663 E2.97486
G1 X155.538 Y121.196 E.01671
M73 P8 R66
G1 X87.92 Y53.579 E2.9985
G1 X87.387 Y53.579 E.01671
G1 X155.538 Y121.729 E3.02213
G1 X155.538 Y122.263 E.01674
G1 X86.854 Y53.579 E3.04579
G1 X86.32 Y53.579 E.01674
G1 X155.538 Y122.796 E3.06945
G1 X155.538 Y123.329 E.01671
M73 P9 R66
G1 X85.787 Y53.579 E3.09309
G1 X85.254 Y53.579 E.01671
G1 X155.538 Y123.863 E3.11674
G1 X155.538 Y124.396 E.01671
G1 X84.721 Y53.579 E3.14038
G1 X84.187 Y53.579 E.01674
M73 Q9 S69
G1 X155.538 Y124.929 E3.16404
G1 X155.538 Y125.462 E.01671
G1 X83.654 Y53.579 E3.18767
G1 X83.121 Y53.579 E.01671
M73 Q9 S68
G1 X155.538 Y125.996 E3.21133
G1 X155.538 Y126.424 E.01342
G1 X155.433 Y126.424 E.00329
G1 X82.588 Y53.579 E3.23031
G1 X82.054 Y53.579 E.01674
G1 X154.899 Y126.424 E3.23031
G1 X154.366 Y126.424 E.01671
M73 P9 R65
G1 X81.521 Y53.579 E3.23031
G1 X80.988 Y53.579 E.01671
M73 P10 R65
G1 X153.833 Y126.424 E3.23031
G1 X153.299 Y126.424 E.01674
G1 X80.455 Y53.579 E3.23029
G1 X79.921 Y53.579 E.01674
G1 X152.766 Y126.424 E3.23031
G1 X152.233 Y126.424 E.01671
M73 Q10 S68
G1 X79.388 Y53.579 E3.23031
G1 X78.855 Y53.579 E.01671
G1 X151.699 Y126.424 E3.23029
G1 X151.166 Y126.424 E.01671
G1 X78.321 Y53.579 E3.23031
G1 X77.788 Y53.579 E.01671
G1 X150.633 Y126.424 E3.23031
G1 X150.099 Y126.424 E.01674
M73 Q10 S67
G1 X77.255 Y53.58 E3.23027
G1 X76.722 Y53.58 E.01671
M73 P11 R65
G1 X149.566 Y126.424 E3.23027
G1 X149.033 Y126.424 E.01671
G1 X76.188 Y53.58 E3.23029
G1 X75.655 Y53.58 E.01671
G1 X148.499 Y126.424 E3.23027
G1 X147.966 Y126.424 E.01671
M73 P11 R64
G1 X75.122 Y53.58 E3.23027
G1 X74.589 Y53.58 E.01671
M73 Q11 S67
G1 X147.433 Y126.424 E3.23027
G1 X146.899 Y126.424 E.01674
G1 X74.055 Y53.58 E3.23027
G1 X73.522 Y53.58 E.01671
G1 X146.366 Y126.424 E3.23027
G1 X145.832 Y126.424 E.01674
G1 X72.989 Y53.58 E3.23025
G1 X72.456 Y53.58 E.01671
G1 X145.299 Y126.424 E3.23025
G1 X144.766 Y126.424 E.01671
M73 P12 R64
G1 X71.922 Y53.58 E3.23027
G1 X71.389 Y53.58 E.01671
G1 X144.232 Y126.423 E3.23022
G1 X143.699 Y126.423 E.01671
M73 Q11 S66
G1 X70.856 Y53.58 E3.23022
G1 X70.323 Y53.58 E.01671
M73 Q12 S66
G1 X143.166 Y126.423 E3.23022
G1 X142.632 Y126.423 E.01674
G1 X69.789 Y53.58 E3.23022
G1 X69.256 Y53.58 E.01671
M73 P12 R63
G1 X142.099 Y126.423 E3.23022
G1 X141.566 Y126.423 E.01671
G1 X68.723 Y53.58 E3.23022
G1 X68.189 Y53.58 E.01674
G1 X141.032 Y126.423 E3.23022
G1 X140.499 Y126.423 E.01671
M73 P13 R63
G1 X67.656 Y53.58 E3.23022
G1 X67.123 Y53.58 E.01671
G1 X139.966 Y126.423 E3.23022
G1 X139.432 Y126.423 E.01674
G1 X66.59 Y53.58 E3.2302
G1 X66.056 Y53.581 E.01674
G1 X138.899 Y126.423 E3.2302
G1 X138.366 Y126.423 E.01671
M73 Q13 S66
G1 X65.523 Y53.581 E3.2302
G1 X64.99 Y53.581 E.01671
G1 X137.832 Y126.423 E3.23018
G1 X137.299 Y126.423 E.01671
M73 Q13 S65
G1 X64.457 Y53.581 E3.23018
G1 X63.923 Y53.581 E.01674
G1 X136.766 Y126.423 E3.2302
G1 X136.232 Y126.423 E.01674
G1 X63.39 Y53.581 E3.23018
G1 X62.857 Y53.581 E.01671
M73 P14 R62
G1 X135.699 Y126.423 E3.23018
G1 X135.166 Y126.423 E.01671
G1 X62.324 Y53.581 E3.23018
G1 X61.79 Y53.581 E.01674
G1 X134.632 Y126.423 E3.23018
G1 X134.099 Y126.423 E.01671
G1 X61.257 Y53.581 E3.23018
G1 X60.724 Y53.581 E.01671
M73 Q14 S65
G1 X133.566 Y126.423 E3.23018
G1 X133.032 Y126.423 E.01674
G1 X60.19 Y53.581 E3.23018
G1 X59.657 Y53.581 E.01671
G1 X132.499 Y126.423 E3.23018
G1 X131.965 Y126.423 E.01674
G1 X59.124 Y53.581 E3.23016
G1 X58.591 Y53.581 E.01671
M73 P15 R62
M73 Q14 S64
G1 X131.432 Y126.423 E3.23016
G1 X130.899 Y126.423 E.01671
G1 X58.057 Y53.581 E3.23018
G1 X57.524 Y53.581 E.01671
G1 X130.365 Y126.423 E3.23016
G1 X129.832 Y126.423 E.01671
G1 X56.991 Y53.581 E3.23016
G1 X56.458 Y53.581 E.01671
M73 P15 R61
G1 X129.299 Y126.423 E3.23016
G1 X128.765 Y126.422 E.01674
M73 Q15 S64
G1 X55.924 Y53.581 E3.23013
G1 X55.391 Y53.581 E.01671
G1 X128.232 Y126.422 E3.23013
G1 X127.699 Y126.422 E.01671
G1 X54.858 Y53.582 E3.23011
G1 X54.325 Y53.582 E.01671
G1 X127.165 Y126.422 E3.23009
G1 X126.632 Y126.422 E.01671
M73 P16 R61
G1 X53.791 Y53.582 E3.23011
G1 X53.258 Y53.582 E.01671
G1 X126.099 Y126.422 E3.23011
G1 X125.565 Y126.422 E.01674
G1 X52.725 Y53.582 E3.23009
G1 X52.192 Y53.582 E.01671
M73 Q15 S63
G1 X125.032 Y126.422 E3.23009
G1 X124.499 Y126.422 E.01671
G1 X51.658 Y53.582 E3.23011
G1 X51.125 Y53.582 E.01671
M73 Q16 S63
G1 X123.965 Y126.422 E3.23009
G1 X123.432 Y126.422 E.01671
M73 P16 R60
G1 X50.592 Y53.582 E3.23009
G1 X50.058 Y53.582 E.01674
G1 X122.899 Y126.422 E3.23011
G1 X122.365 Y126.422 E.01674
M73 P17 R60
G1 X49.525 Y53.582 E3.23009
G1 X48.992 Y53.582 E.01671
G1 X121.832 Y126.422 E3.23009
G1 X121.299 Y126.422 E.01671
G1 X48.459 Y53.582 E3.23009
G1 X47.925 Y53.582 E.01674
G1 X120.765 Y126.422 E3.23009
G1 X120.232 Y126.422 E.01671
G1 X47.392 Y53.582 E3.23009
G1 X46.859 Y53.582 E.01671
M73 Q17 S63
G1 X119.699 Y126.422 E3.23009
G1 X119.165 Y126.422 E.01674
M73 Q17 S62
G1 X46.326 Y53.582 E3.23007
G1 X45.792 Y53.582 E.01674
G1 X118.632 Y126.422 E3.23009
G1 X118.099 Y126.422 E.01671
G1 X45.259 Y53.582 E3.23009
G1 X44.726 Y53.582 E.01671
M73 P18 R60
G1 X117.565 Y126.422 E3.23007
G1 X117.032 Y126.422 E.01671
M73 P18 R59
